X: 032106
T: Croagh Patrick
C: BB 1/06
N: 224
L: 1/8
M: 4/4
R: reel
Q: 1/4 = 180
K: G
D | "G"GFGB "Am"AEEA | "C"cBAG "D7" FDDC |\
"G" B,DGB "Am" A^GAc | "Em" BedB "D" A3 c |
"G" BGGF "Em" GEDB, | "C" CDEG "D7" FAdc |\
"G" BGGB "Am7" cAGE | "D" DFAF "G"G3 :|
g | "D7"fddc AddB |"Am7" ceag "D" fd d2 |\
"G" BGBc "Em" Beef | "G" gb "D" af "Em" e3f |
"G" gd^cd "Am" =cAAc | "G" BGBd "D7" cAFA |\
"G" GFGB "Am7" Aceg | "D7" fdcA "G" G3 :|
